assets/svg/cash-on-deliver.svg

<?xml version="1.0" encoding="UTF-8"?>
<svg width="1000px" height="1000px" viewBox="0 0 1000 1000" version="1.1" xmlns="http://www.w3.org/2000/svg" xmlns:xlink="http://www.w3.org/1999/xlink">
    <!-- Generator: sketchtool 52.4 (67378) - http://www.bohemiancoding.com/sketch -->
    <title>cash-on-deliver</title>
    <desc>Created with sketchtool.</desc>
    <g id="新版图标" stroke="none" stroke-width="1" fill="none" fill-rule="evenodd">
        <g id="cash-on-deliver" fill="#323233">
            <g id="圆角-货到付款">
                <path d="M166.666667,277.777778 L166.666667,833.333333 L833.333333,833.333333 L833.333333,277.777778 L166.666667,277.777778 Z M111.111111,222.222222 L151.311489,141.821467 C160.722156,123.000132 179.958996,111.111111 201.001888,111.111111 L798.998112,111.111111 C820.041004,111.111111 839.277844,123.000132 848.688511,141.821467 L888.888889,222.222222 L888.888889,833.333333 C888.888889,864.015819 864.015819,888.888889 833.333333,888.888889 L166.666667,888.888889 C135.984181,888.888889 111.111111,864.015819 111.111111,833.333333 L111.111111,222.222222 Z M173.22411,222.222222 L826.77589,222.222222 L798.998112,166.666667 L201.001888,166.666667 L173.22411,222.222222 Z" id="Combined-Shape" fill-rule="nonzero"></path>
                <path d="M500.493526,444.240019 L500.289101,444.444444 L500.697952,444.444444 L500.493526,444.240019 Z M500.493526,443.252966 L539.28371,404.462783 C550.131607,393.614886 567.719523,393.614886 578.56742,404.462783 C589.415317,415.31068 589.415317,432.898596 578.56742,443.746493 L550.091691,472.222222 L596.722222,472.222222 C596.998365,472.222222 597.222222,472.44608 597.222222,472.722222 L597.222222,527.277778 C597.222222,527.55392 596.998365,527.777778 596.722222,527.777778 L527.777778,527.777778 L527.777778,555.555556 L596.722222,555.555556 C596.998365,555.555556 597.222222,555.779413 597.222222,556.055556 L597.222222,610.611111 C597.222222,610.887253 596.998365,611.111111 596.722222,611.111111 L527.777778,611.111111 L527.777778,666.166667 C527.777778,666.442809 527.55392,666.666667 527.277778,666.666667 L472.722222,666.666667 C472.44608,666.666667 472.222222,666.442809 472.222222,666.166667 L472.222222,611.111111 L403.277778,611.111111 C403.001635,611.111111 402.777778,610.887253 402.777778,610.611111 L402.777778,556.055556 C402.777778,555.779413 403.001635,555.555556 403.277778,555.555556 L472.222222,555.555556 L472.222222,527.777778 L403.277778,527.777778 C403.001635,527.777778 402.777778,527.55392 402.777778,527.277778 L402.777778,472.722222 C402.777778,472.44608 403.001635,472.222222 403.277778,472.222222 L450.895362,472.222222 L422.419633,443.746493 C411.571736,432.898596 411.571736,415.31068 422.419633,404.462783 C433.26753,393.614886 450.855446,393.614886 461.703343,404.462783 L500.493526,443.252966 Z M527.777778,471.52427 L527.777778,472.222222 L528.47573,472.222222 L527.777778,471.52427 Z" id="Combined-Shape"></path>
            </g>
        </g>
    </g>
</svg>

<svg width="1000" height="1000" xmlns="http://www.w3.org/2000/svg"><g fill="#323233" fill-rule="evenodd"><path d="M166.667 277.778v555.555h666.666V277.778H166.667zm-55.556-55.556l40.2-80.4a55.556 55.556 0 0 1 49.69-30.71h597.997a55.556 55.556 0 0 1 49.69 30.71l40.2 80.4v611.111c0 30.683-24.872 55.556-55.555 55.556H166.667c-30.683 0-55.556-24.873-55.556-55.556v-611.11zm62.113 0h653.552l-27.778-55.555H201.002l-27.778 55.555z" fill-rule="nonzero"/><path d="M500.494 444.24l-.205.204h.409l-.204-.204zm0-.987l38.79-38.79c10.848-10.848 28.436-10.848 39.283 0 10.848 10.848 10.848 28.436 0 39.283l-28.475 28.476h46.63a.5.5 0 0 1 .5.5v54.556a.5.5 0 0 1-.5.5h-68.944v27.778h68.944a.5.5 0 0 1 .5.5v54.555a.5.5 0 0 1-.5.5h-68.944v55.056a.5.5 0 0 1-.5.5h-54.556a.5.5 0 0 1-.5-.5V611.11h-68.944a.5.5 0 0 1-.5-.5v-54.555a.5.5 0 0 1 .5-.5h68.944v-27.778h-68.944a.5.5 0 0 1-.5-.5v-54.556a.5.5 0 0 1 .5-.5h47.617l-28.475-28.476c-10.848-10.847-10.848-28.435 0-39.283 10.848-10.848 28.435-10.848 39.283 0l38.79 38.79zm27.284 28.271v.698h.698l-.698-.698z"/></g></svg>
